X:179
%%topmargin 3cm
T:Rachael Rae's Mother
C:
O:Scotland
B:Keith Norman MacDonald : "The Skye collection of the best reels & strathspeys extant" : 1887
Z:Ralph Palmer
R:Reel
M:C
L:1/8
K:D
F | D2 F>A BAFA | dBAF {/F}E2 EF | D2 F>A B>AFA | (d/c/B/A/) d>F D2 DF | D2 F>A B>AFA |
dcdf {/f}e2 ef | A2 F>A B<de>B | c<eA>c d2 d || g | fa f<da>d | ff {/f}e2 eg |
fa f<da>A | B<dc>e d2 dg | fa f<da>f | (3gag (3fgf {/f}e2 ef/g/ | a>fg>e f<ae>f | (d/c/B/A/) dF D2 D |]
